_inc/systems/logos/coco.svg

<?xml version="1.0" encoding="utf-8"?>
<svg id="Ebene_1" enable-background="new 0 0 566.929 87.964" height="70.468" viewBox="0 0 343.64012 70.467654" width="343.64" version="1.1" y="0px" x="0px" xmlns="http://www.w3.org/2000/svg">
  <path id="path3999-4" d="M 273.133 70.468 L 301.309 70.468 L 343.64 0 L 315.474 0 L 273.131 70.468" style="fill: rgb(255, 255, 255);"/>
  <path id="path3912-8" stroke-linejoin="miter" d="M 110.587 19.225 L 110.587 57.623 L 133.626 57.623 C 140.793 56.448 144.892 52.433 146.451 46.104 C 146.465 40.98 146.453 35.869 146.451 30.745 C 144.892 24.416 140.793 20.401 133.626 19.226 L 110.587 19.226 Z M 119.598 26.93 L 129.812 26.93 C 133.02 27.499 136.064 28.505 137.517 33.33 L 137.492 43.569 C 136.026 48.387 132.994 49.4 129.786 49.969 L 119.572 49.969 L 119.598 26.93 Z" stroke-linecap="butt" stroke-width="1.11043465000000000px" style="fill: rgb(255, 255, 255);"/>
  <path id="path3896" stroke-linejoin="miter" d="M 11.993 57.631 L 11.993 28.202 L 0.466 28.202 L 0.463 19.245 L 36.325 19.245 L 32.481 28.202 L 23.516 28.206 L 23.516 57.631 L 11.993 57.631" stroke-linecap="butt" stroke-width="1.11043465000000000px" style="fill: rgb(255, 255, 255);"/>
  <path id="path3900" stroke-linejoin="miter" d="M 40.164 19.25 L 26.085 57.623 L 37.63 57.623 L 42.084 43.57 L 46.564 49.969 L 54.244 49.969 L 56.803 57.623 L 68.426 57.623 L 54.244 19.251 L 40.165 19.251 Z M 47.153 29.464 L 51.684 41.01 L 42.724 41.01 L 47.152 29.464 Z" stroke-linecap="butt" stroke-width="1.11043465000000000px" style="fill: rgb(255, 255, 255);"/>
  <path id="path3908" stroke-linejoin="miter" d="M 69.594 57.631 L 69.594 19.245 L 83.704 19.245 L 97.789 47.408 L 97.789 19.245 L 106.754 19.245 L 106.747 57.631 L 92.664 57.631 L 78.577 29.492 L 78.573 57.631 L 69.594 57.631" stroke-linecap="butt" stroke-width="1.11043465000000000px" style="fill: rgb(255, 255, 255);"/>
  <path id="path3991" stroke-linejoin="miter" d="M 156.681 39.74 L 141.325 19.245 L 152.842 19.245 L 161.193 32.022 L 169.504 19.245 L 182.287 19.245 L 166.883 39.676 L 166.911 57.631 L 156.691 57.631 L 156.681 39.74" stroke-linecap="butt" stroke-width="1.11043465000000000px" style="fill: rgb(255, 255, 255);"/>
  <path id="path3999-4-5" d="M 236.148 70.468 L 264.324 70.468 L 306.65 0 L 278.479 0 L 236.145 70.468" style="fill: rgb(255, 255, 255);"/>
  <path id="path3999-4-5-7" d="M 199.155 70.468 L 227.331 70.468 L 269.657 0 L 241.491 0 L 199.148 70.468" style="fill: rgb(255, 255, 255);"/>
  <text id="text4074" style="fill: rgb(255, 255, 255); font-family: &quot;Open Sans Light&quot;; font-size: 40px; white-space: pre;"/>
</svg>

<svg xmlns="http://www.w3.org/2000/svg" viewBox="0 0 343.64 70.47"><path d="M273.13 70.47h28.18L343.64 0h-28.17zM110.59 19.23v38.4h23.04c7.16-1.18 11.26-5.2 12.82-11.53V30.75c-1.56-6.33-5.66-10.35-12.82-11.52zm9 7.7h10.22c3.21.57 6.25 1.57 7.7 6.4l-.02 10.24c-1.46 4.82-4.5 5.83-7.7 6.4h-10.22zM12 57.63V28.2H.46v-8.95h35.86l-3.85 8.95h-8.96v29.43zm28.16-38.38L26.1 57.62h11.54l4.45-14.05 4.48 6.4h7.68l2.56 7.65h11.63l-14.2-38.37zm7 10.21 4.52 11.55h-8.96zM69.6 57.63V19.25h14.1L97.8 47.4V19.25h8.96v38.38h-14.1L78.58 29.5v28.14z" style="fill:#fff"/><path d="m156.68 39.74-15.36-20.5h11.52l8.35 12.78 8.31-12.78h12.79l-15.4 20.44.02 17.95H156.7zm79.47 30.73h28.17L306.65 0h-28.17zm-36.99 0h28.17L269.66 0h-28.17z" style="fill:#fff"/></svg>
